resources/images/icons/expand.svg

<svg fill="none" height="24" viewBox="0 0 24 24" width="24" xmlns="http://www.w3.org/2000/svg"><path d="m17 2c-.5523 0-1 .44772-1 1s.4477 1 1 1h1.5858l-4.2929 4.29289c-.3905.39053-.3905 1.02369 0 1.41422.3905.39049 1.0237.39049 1.4142 0l4.2929-4.29289v1.58579c0 .55228.4477.99999 1 .99999s1-.44771 1-1v-4c0-.55228-.4477-1-1-1zm-13 16.5858v-1.5858c0-.5523-.44772-1-1-1-.55229 0-1 .4477-1 1v4c0 .5523.44772 1 1 1h4c.55228 0 1-.4477 1-1s-.44771-1-1-1h-1.58579l4.2929-4.2929c.39049-.3905.39049-1.0237 0-1.4142-.39053-.3905-1.02369-.3905-1.41422 0z" fill="#0d0d0d" xmlns="http://www.w3.org/2000/svg"/></svg>

<svg fill="none" viewBox="0 0 24 24" height="24" width="24" xmlns="http://www.w3.org/2000/svg">
<path xmlns="http://www.w3.org/2000/svg" d="M17 2C16.4477 2 16 2.44772 16 3C16 3.55228 16.4477 4 17 4L18.5858 4L14.2929 8.29289C13.9024 8.68342 13.9024 9.31658 14.2929 9.70711C14.6834 10.0976 15.3166 10.0976 15.7071 9.70711L20 5.41422L20 7.00001C20 7.55229 20.4477 8 21 8C21.5523 8 22 7.55229 22 7L22 3C22 2.44772 21.5523 2 21 2H17ZM4 18.5858L4 17C4 16.4477 3.55228 16 3 16C2.44771 16 2 16.4477 2 17L2 21C2 21.5523 2.44772 22 3 22H7C7.55228 22 8 21.5523 8 21C8 20.4477 7.55229 20 7 20H5.41421L9.70711 15.7071C10.0976 15.3166 10.0976 14.6834 9.70711 14.2929C9.31658 13.9024 8.68342 13.9024 8.29289 14.2929L4 18.5858Z" fill="#0D0D0D"></path>
</svg>
